fa-calendar.svg

<svg width="14" height="16" viewBox="0 0 14 16" fill="none" xmlns="http://www.w3.org/2000/svg">
<path d="M4.75 0.75V2H9.25V0.75C9.25 0.34375 9.5625 0 10 0C10.4062 0 10.75 0.34375 10.75 0.75V2H12C13.0938 2 14 2.90625 14 4V4.5V6V14C14 15.125 13.0938 16 12 16H2C0.875 16 0 15.125 0 14V6V4.5V4C0 2.90625 0.875 2 2 2H3.25V0.75C3.25 0.34375 3.5625 0 4 0C4.40625 0 4.75 0.34375 4.75 0.75ZM1.5 6V14C1.5 14.2812 1.71875 14.5 2 14.5H12C12.25 14.5 12.5 14.2812 12.5 14V6H1.5Z" fill="#241D16"/>
</svg>

<svg xmlns="http://www.w3.org/2000/svg" width="14" height="16" fill="none"><path fill="#241D16" d="M4.75.75V2h4.5V.75A.74.74 0 0 1 10 0a.76.76 0 0 1 .75.75V2H12c1.094 0 2 .906 2 2v10c0 1.125-.906 2-2 2H2c-1.125 0-2-.875-2-2V4c0-1.094.875-2 2-2h1.25V.75A.74.74 0 0 1 4 0a.76.76 0 0 1 .75.75M1.5 6v8c0 .281.219.5.5.5h10c.25 0 .5-.219.5-.5V6z"/></svg>
